src/assets/img/svg/burger-menu-icons/facebook.svg

<svg width="6" height="12" viewBox="0 0 6 12" fill="none" xmlns="http://www.w3.org/2000/svg">
    <path
            d="M4.85349 2.13005H5.91938V0.273622C5.73549 0.248325 5.10306 0.191406 4.36651 0.191406C2.8297 0.191406 1.77695 1.15805 1.77695 2.9347V4.56978H0.0810547V6.64514H1.77695V11.8671H3.85619V6.64562H5.48349L5.74181 4.57027H3.8557V3.14049C3.85619 2.54065 4.0177 2.13005 4.85349 2.13005Z"
            fill="#D0CFCF"/>
</svg>

<svg width="6" height="12" fill="none" xmlns="http://www.w3.org/2000/svg"><path d="M4.853 2.13H5.92V.274A13.764 13.764 0 004.367.19c-1.537 0-2.59.967-2.59 2.744V4.57H.081v2.075h1.696v5.222h2.08V6.646h1.626l.259-2.076H3.856V3.14c0-.6.162-1.01.997-1.01z" fill="#D0CFCF"/></svg>
